d1 $ n "<c*4 a*4 [f f e a] d*4>"
  # sound "supermandolin"

d6 $ n "<c2 a2 f2 d2>"
  # sound "superpiano"
  # gain(0.9)

d2 $ n "<[0*2 ~] 3>"
  # s "808bd"

d3 $ n "~ 3"
  # s "808sd"

d4 $ n "6*2"
  # s "808cy"

d5 $ n "22*4"
  # s "808cy"
  # gain(0.7)

resetCycles