d1 $ n "<[0 [0, 2]] [[0 0] 2]>"
  # s "cpu"

d2 $ juxBy 0.7 rev $ every 2 ("<0.25 0.125 0.5>" <~) $ n "3 5 3 6 3 6 [7 5] [3 3 3]"
  # "claus"
  # squiz "<1 2.5 2>"
  # room (slow 4 $ range 0 0.2 saw)
  # sz 0.5
  # orbit 1

d3 $ n "4*4"
  # s "808"

-- https://tidalcycles.org/docs/patternlib/howtos/buildrhythms#another-rhythmic-construction
d4 $ juxBy 0.4 rev $ every 2 (rot "<1 3 2>")
  $ n "0 0 [2 0] [2 3]"
  # sound "feel"
  # speed "0.8 1.2 1.8"
  # gain (0.8)

